X:1
T:Sing to the Lord Jehovah’s name
T:Sing to the Lord Jehovah’s name - Deddington (Thomas Clark)
C:Thomas Clark
Z:p1, A Second Set of Psalm
Z:and Hymn Tunes,
Z:London: (1806)
%%score [ 1 2 3 4 ]
L:1/8
M:2/2
K:C
V:1 treble nm="SOPRANO" snm="S."
V:2 treble nm="ALTO" snm="A."
V:3 treble-8 transpose=-12 nm="TENOR" snm="T."
V:4 bass nm="BASS" snm="B."
V:1
 c4 c3 c | c6 e2 | d4 B4 | c6 d2 | e4 e4 | d6 c2 | B8 |: z4 G4 | c4 (d2 e2) | f4 e4 | d4 ^c4 | %11
w: Let prin- ces|hear, let|an- gels|know, How|mean their|na- tures|seem|Those|gods on _|high, and|gods be-|
w: Sing to the|Lord Je-|ho- vah’s|name, And|in his|strength re-|joice:|When|his sal- *|va- tion|is our|
w: With thanks ap-|proach his|aw- ful|sight, And|psalms of|ho- nour|sing;|The|Lord’s a _|God of|bound- less|
 d6 d2 | (e3 f g3 f | e2) c2 B2 c2 | d2 e2 f2 d2 | e4 d4 | c8 :| %17
w: low, When|once _ _ _|_ com- par’d with|him, when once com-|par’d with|him.|
w: theme, Ex-|alt- * * *|* ed be our|voice, ex- alt- ed|be our|voice.|
w: might, The|whole _ _ _|_ cre- a- tion’s|King, the whole cre-|a- tion’s|King.|
V:2
 E4 G3 G | G6 G2 | F4 D4 | E6 G2 | G4 G4 | G4 ^F4 | G8 |: z4 D4 | (E2 G2) A4 | A4 G4 | F4 E4 | %11
w: Let prin- ces|hear, let|an- gels|know, How|mean their|na- tures|seem|Those|gods _ on|high, and|gods be-|
w: Sing to the|Lord Je-|ho- vah’s|name, And|in his|strength re-|joice:|When|his _ sal-|va- tion|is our|
w: With thanks ap-|proach his|aw- ful|sight, And|psalms of|ho- nour|sing;|The|Lord’s _ a|God of|bound- less|
 D6 z2 | z8 | z2 G2 G2 G2 | (G4 A4 | G4) (G2 F2) | E8 :| %17
w: low,||When once com-|par’d _|_ with _|him.|
w: theme,||Ex- alt- ed|be _|_ our _|voice.|
w: might,||The whole cre-|a- *|* tion’s _|King.|
V:3
 G4 c3 c | e6 c2 | A4 G4 | G6 B2 | c4 c4 | A4 d4 | d8 |: z4 B4 | (c2 e2) (d2 ^c2) | d4 _B4 | %10
w: Let prin- ces|hear, let|an- gels|know, How|mean their|na- tures|seem|Those|gods _ on _|high, and|
w: Sing to the|Lord Je-|ho- vah’s|name, And|in his|strength re-|joice:|When|his _ sal- *|va- tion|
w: With thanks ap-|proach his|aw- ful|sight, And|psalms of|ho- nour|sing;|The|Lord’s _ a _|God of|
 A4 A4 | A6 z2 | z4 z2 B2 | (c2 e2 f2 e2 | d2) c2 c4- | c4 B4 | c8 :| %17
w: gods be-|low,|When|once _ _ _|_ com- par’d|_ with|him.|
w: is our|theme,|Ex-|alt- * * *|* ed be|_ our|voice.|
w: bound- less|might,|The|whole _ _ _|_ cre- a-|* tion’s|King.|
V:4
 C,4"^6" E,3 C, | C6 C2 |"^6" F,4 G,4 | C,6 G,2 | C4 C,4 |"^4" D,6"^#" D,2 | G,8 |: z4 G,4 | %8
w: Let prin- ces|hear, let|an- gels|know, How|mean their|na- tures|seem|Those|
w: Sing to the|Lord Je-|ho- vah’s|name, And|in his|strength re-|joice:|When|
w: With thanks ap-|proach his|aw- ful|sight, And|psalms of|ho- nour|sing;|The|
"^6" E,4"^6" (F,2"^´4" E,2) | D,4"^6C" G,4 |"^64" A,4"^5#" A,,4 | D,6 z2 | %12
w: gods on _|high, and|gods be-|low,|
w: his sal- *|va- tion|is our|theme,|
w: Lord’s a _|God of|bound- less|might,|
"^Notes: The order of parts in the source is Tenor - [Alto] - Air - [Bass], with both the Tenor and Alto parts printed in thetreble clef an octave above sounding pitch. Only the first verse of the text is underlaid in the source: threesubsequent verses have been added editorially." z2 C,2"^6" E,2 G,2 | %13
w: When once com-|
w: Ex- alt- ed|
w: The whole cre-|
 C4"^43" (D2 C2) |"^6" B,2 C2 F,2"^65" F,2 |"^64" G,4"^53""^7" G,,4 | C,8 :| %17
w: par’d with _|him, when once com-|par’d with|him.|
w: be our _|voice, ex- alt- ed|be our|voice.|
w: a- tion’s _|King, the whole cre-|a- tion’s|King.|

